src/static/logos/uikit.svg

<svg width="256" height="297" xmlns="http://www.w3.org/2000/svg" preserveAspectRatio="xMidYMid"><path d="M174.656 28.438L125.717 0 74.646 31.723l49.621 27.414 50.389-30.699zm23.403 12.245L147.52 71.424l57.28 33.109V192l-77.248 43.904L51.2 192v-68.267L0 98.304v123.563l125.717 74.666L256 222.422V74.155l-57.941-33.472z" fill="#2396F3"/></svg>

<?xml version="1.0" encoding="UTF-8"?>
<svg width="256px" height="297px" viewBox="0 0 256 297" version="1.1" xmlns="http://www.w3.org/2000/svg" xmlns:xlink="http://www.w3.org/1999/xlink" preserveAspectRatio="xMidYMid">
    <g>
        <path d="M174.656,28.438 L125.717,0 L74.646,31.723 L124.267,59.137 L174.656,28.438 L174.656,28.438 Z M198.059,40.683 L147.52,71.424 L204.8,104.533 L204.8,192 L127.552,235.904 L51.2,192 L51.2,123.733 L0,98.304 L0,221.867 L125.717,296.533 L256,222.422 L256,74.155 L198.059,40.683 L198.059,40.683 Z" fill="#2396F3"></path>
    </g>
</svg>
